usr/share/icons/biglinux-icons-material/scalable/apps/system-log-out.svg

<svg width="24" height="24" viewBox="0 0 24 24" fill="none" xmlns="http://www.w3.org/2000/svg">
<path fill-rule="evenodd" clip-rule="evenodd" d="M9.3775 0.123917C9.50824 0.125309 9.6332 0.108654 9.75239 0.0739559C11.3187 -0.0286497 12.8849 -0.0244879 14.451 0.0864463C15.871 0.197088 17.2456 0.505185 18.5748 1.01073C20.7846 1.92048 22.2966 3.49843 23.1109 5.74457C23.5767 7.0969 23.8516 8.4875 23.9357 9.91635C24.0521 11.7106 24.0105 13.5009 23.8107 15.2872C23.6613 16.5427 23.3363 17.7501 22.836 18.9094C21.9081 20.9194 20.4044 22.3058 18.3249 23.0687C16.6398 23.6381 14.9069 23.9378 13.1264 23.968C11.1236 24.0721 9.14087 23.9222 7.17815 23.5183C3.56552 22.7136 1.33701 20.5111 0.492632 16.9109C0.134308 15.2903 -0.0281444 13.6499 0.00527567 11.9897C-0.034715 10.2244 0.15273 8.4841 0.567609 6.76878C1.45278 3.40263 3.58964 1.31674 6.97821 0.511118C7.7678 0.31808 8.56757 0.189012 9.3775 0.123917Z" fill="url(#paint0_radial_1_27)"/>
<path d="M17.1006 16.6011C17.0785 16.4035 16.9789 16.2228 16.8237 16.0986C16.7468 16.037 16.6585 15.9912 16.5638 15.9637C16.4692 15.9363 16.37 15.9278 16.2721 15.9386C16.1741 15.9495 16.0793 15.9796 15.993 16.0272C15.9067 16.0747 15.8306 16.1388 15.769 16.2158C14.4883 17.8173 12.5506 18.7493 10.5 18.75C6.76319 18.75 3.74999 15.7368 3.74999 12C3.74999 8.26321 6.76319 5.25001 10.5 5.25001C12.5482 5.25526 14.4817 6.19009 15.7588 7.79151C15.8202 7.8686 15.8962 7.93283 15.9825 7.98053C16.0688 8.02822 16.1636 8.05845 16.2615 8.06947C16.3595 8.08049 16.4587 8.07209 16.5534 8.04476C16.6481 8.01743 16.7365 7.97169 16.8135 7.91017C16.9687 7.78615 17.0685 7.60558 17.0907 7.4081C17.1129 7.21063 17.0559 7.0124 16.9321 6.85694C15.3717 4.90014 13.0057 3.75638 10.5029 3.75001C10.5019 3.75001 10.501 3.75001 10.5 3.75001C5.95254 3.75001 2.25 7.45255 2.25 12C2.25 16.5475 5.95254 20.25 10.5 20.25C10.5005 20.25 10.501 20.25 10.5015 20.25C13.0066 20.2493 15.3764 19.1097 16.941 17.1533C17.0026 17.0763 17.0484 16.9879 17.0758 16.8931C17.1032 16.7984 17.1116 16.6991 17.1006 16.6011Z" fill="#FAFAFA"/>
<path d="M18.8027 9.06304C18.7041 9.06325 18.6066 9.0829 18.5156 9.12085C18.4246 9.15881 18.342 9.21433 18.2725 9.28424C18.1322 9.42527 18.0538 9.61623 18.0543 9.81512C18.0549 10.014 18.1344 10.2045 18.2754 10.3448L19.1851 11.2501H12C11.8011 11.2501 11.6103 11.3291 11.4697 11.4697C11.329 11.6104 11.25 11.8011 11.25 12.0001C11.25 12.199 11.329 12.3897 11.4697 12.5304C11.6103 12.671 11.8011 12.7501 12 12.7501H19.1851L18.2754 13.6553C18.1344 13.7956 18.0549 13.9861 18.0543 14.185C18.0538 14.3839 18.1322 14.5748 18.2725 14.7159C18.4127 14.8569 18.6032 14.9364 18.8021 14.937C19.001 14.9376 19.192 14.8591 19.333 14.7189L21.5288 12.5319C21.5571 12.5037 21.583 12.4733 21.6065 12.441C21.652 12.3785 21.6875 12.3094 21.7119 12.236C21.7124 12.2345 21.7129 12.233 21.7134 12.2315C21.7139 12.2295 21.7144 12.2275 21.7149 12.2255C21.738 12.1526 21.7499 12.0765 21.75 12.0001C21.75 11.9781 21.749 11.9561 21.7471 11.9341C21.7466 11.9321 21.7461 11.9301 21.7456 11.9281C21.7444 11.9164 21.7429 11.9046 21.7412 11.893C21.7391 11.8792 21.7366 11.8655 21.7338 11.8519C21.7316 11.8402 21.7292 11.8284 21.7265 11.8168C21.7255 11.8129 21.7245 11.809 21.7235 11.8051C21.7188 11.7873 21.7134 11.7697 21.7074 11.7523C21.6981 11.7259 21.6874 11.7 21.6752 11.6747C21.665 11.6532 21.6537 11.6322 21.6415 11.6117C21.6396 11.6083 21.6376 11.6048 21.6356 11.6014C21.6323 11.5965 21.6289 11.5916 21.6254 11.5868C21.6156 11.5723 21.6054 11.5581 21.5946 11.5444C21.5917 11.5404 21.5888 11.5365 21.5858 11.5326C21.5815 11.5272 21.5771 11.5218 21.5727 11.5165C21.5592 11.5003 21.545 11.4847 21.5302 11.4696C21.5297 11.4691 21.5292 11.4686 21.5287 11.4681L19.3329 9.2826C19.1922 9.14194 19.0016 9.06307 18.8027 9.06304Z" fill="#FAFAFA"/>
<defs>
<radialGradient id="paint0_radial_1_27" cx="0" cy="0" r="1" gradientUnits="userSpaceOnUse" gradientTransform="translate(12) rotate(90) scale(24)">
<stop stop-color="#9BDF6C"/>
<stop offset="1" stop-color="#204705"/>
</radialGradient>
</defs>
</svg>

<svg xmlns="http://www.w3.org/2000/svg" width="24" height="24" fill="none"><path fill="url(#a)" fill-rule="evenodd" d="M9.377.124c.131.001.256-.015.375-.05a34.502 34.502 0 0 1 4.699.012c1.42.111 2.795.42 4.124.925 2.21.91 3.722 2.487 4.536 4.734.466 1.352.74 2.743.825 4.171a30.475 30.475 0 0 1-.125 5.371 12.959 12.959 0 0 1-.975 3.622c-.928 2.01-2.432 3.397-4.511 4.16-1.685.57-3.418.869-5.199.899a23.372 23.372 0 0 1-5.948-.45c-3.612-.804-5.841-3.007-6.685-6.607a20.778 20.778 0 0 1-.488-4.921c-.04-1.766.148-3.506.563-5.221C1.453 3.403 3.59 1.317 6.978.51c.79-.193 1.59-.322 2.4-.387Z" clip-rule="evenodd"/><path fill="#FAFAFA" d="M17.1 16.601a.75.75 0 0 0-1.331-.385A6.748 6.748 0 0 1 10.5 18.75 6.739 6.739 0 0 1 3.75 12a6.739 6.739 0 0 1 12.009-4.208.75.75 0 1 0 1.173-.935 8.252 8.252 0 0 0-6.43-3.107H10.5c-4.547 0-8.25 3.703-8.25 8.25 0 4.547 3.703 8.25 8.25 8.25h.002a8.25 8.25 0 0 0 6.439-3.097.75.75 0 0 0 .16-.552Z"/><path fill="#FAFAFA" d="M18.803 9.063a.75.75 0 0 0-.528 1.282l.91.905H12a.75.75 0 1 0 0 1.5h7.185l-.91.905a.75.75 0 0 0 1.058 1.064l2.196-2.187a.756.756 0 0 0 .183-.296l.001-.005.002-.005a.75.75 0 0 0 .032-.292l-.001-.006a.82.82 0 0 0-.07-.253.762.762 0 0 0-.147-.207l-2.196-2.185a.75.75 0 0 0-.53-.22Z"/><defs><radialGradient id="a" cx="0" cy="0" r="1" gradientTransform="matrix(0 24 -24 0 12 0)" gradientUnits="userSpaceOnUse"><stop stop-color="#9BDF6C"/><stop offset="1" stop-color="#204705"/></radialGradient></defs></svg>
